dist/static/img/common/logo-full.svg

<svg width="328" height="32" viewBox="0 0 328 32" fill="none" xmlns="http://www.w3.org/2000/svg">
<g clip-path="url(#clip0_622_1140)">
<path opacity="0.75" d="M13.2832 0.000274658H0V31.7191H13.2832V0.000274658Z" fill="#1F5AFF"/>
<path opacity="0.75" d="M183.698 0.000427246H170.415V31.7192H183.698V0.000427246Z" fill="#1F5AFF"/>
<path opacity="0.75" d="M13.2832 0.000274658H0V22.821H13.2832C16.2451 22.7979 19.078 21.5856 21.1644 19.4482C23.2508 17.3109 24.4216 14.4218 24.4216 11.4106C24.4216 8.39947 23.2508 5.51038 21.1644 3.37303C19.078 1.23568 16.2451 0.0233513 13.2832 0.000274658V0.000274658Z" fill="#1F5AFF"/>
<path opacity="0.75" d="M57.2533 31.7192H36.1777V0.000427246L57.2533 31.7192Z" fill="#1F5AFF"/>
<path opacity="0.75" d="M46.0289 0.000396159H36.1777V22.8211H46.0289C47.5101 22.8326 48.9789 22.546 50.3506 21.9778C51.7224 21.4095 52.9699 20.5709 54.0213 19.5102C55.0727 18.4495 55.9072 17.1877 56.4767 15.7976C57.0461 14.4075 57.3393 12.9166 57.3393 11.4107C57.3393 9.90491 57.0461 8.41397 56.4767 7.02387C55.9072 5.63377 55.0727 4.37201 54.0213 3.31131C52.9699 2.25062 51.7224 1.41197 50.3506 0.843723C48.9789 0.275472 47.5101 -0.0111441 46.0289 0.000396159Z" fill="#1F5AFF"/>
<path opacity="0.75" d="M140.78 0.000427246L124.438 31.7192H140.78H157.122L140.78 0.000427246Z" fill="#1F5AFF"/>
<path opacity="0.75" d="M123.974 0.000427246L107.632 31.7192H123.974H140.316L123.974 0.000427246Z" fill="#1F5AFF"/>
<path opacity="0.75" d="M83.955 31.7192C92.5709 31.7192 99.5555 24.6187 99.5555 15.8598C99.5555 7.10093 92.5709 0.000427246 83.955 0.000427246C75.3391 0.000427246 68.3545 7.10093 68.3545 15.8598C68.3545 24.6187 75.3391 31.7192 83.955 31.7192Z" fill="#1F5AFF"/>
<path opacity="0.75" d="M72.9248 27.0761C75.8507 30.0503 79.819 31.721 83.9566 31.7207C88.0943 31.7205 92.0623 30.0493 94.9879 27.0748C97.9135 24.1003 99.5569 20.0662 99.5567 15.8599C99.5564 11.6536 97.9125 7.61964 94.9866 4.64551L72.9248 27.0761Z" fill="#1F5AFF"/>
<path opacity="0.75" d="M310.358 0.000366211L294.023 32H310.358H326.693L310.358 0.000366211Z" fill="#1F5AFF"/>
<path opacity="0.75" d="M293.371 0.000366211L277.036 32H293.371H309.705L293.371 0.000366211Z" fill="#1F5AFF"/>
<path opacity="0.75" d="M253.514 32C262.175 32 269.196 24.8366 269.196 16.0002C269.196 7.16372 262.175 0.000366211 253.514 0.000366211C244.854 0.000366211 237.833 7.16372 237.833 16.0002C237.833 24.8366 244.854 32 253.514 32Z" fill="#1F5AFF"/>
<path opacity="0.75" d="M224.764 5.29341C222.634 2.88892 219.836 1.19747 216.74 0.442256C213.644 -0.312956 210.396 -0.0964277 207.423 1.06327C204.451 2.22296 201.894 4.27131 200.091 6.93801C198.288 9.60471 197.322 12.7644 197.322 16.0002C197.322 19.2359 198.288 22.3956 200.091 25.0623C201.894 27.729 204.451 29.7774 207.423 30.9371C210.396 32.0968 213.644 32.3133 216.74 31.5581C219.836 30.8029 222.634 29.1114 224.764 26.7069L218.658 16.0005L224.764 5.29341Z" fill="#1F5AFF"/>
<path opacity="0.75" d="M224.765 5.29368C222.829 3.19951 220.359 1.64055 217.606 0.774541C214.852 -0.0914664 211.912 -0.233782 209.084 0.361996L218.392 16.0002L224.765 5.29368Z" fill="#1F5AFF"/>
<path opacity="0.75" d="M209.084 31.6384C211.912 32.2341 214.852 32.0918 217.606 31.2258C220.359 30.3598 222.829 28.8009 224.765 26.7067L218.393 16.0002L209.084 31.6384Z" fill="#1F5AFF"/>
<path opacity="0.75" d="M243.06 27.4248C245.931 30.3542 249.825 32 253.885 32C257.946 32 261.84 30.3542 264.711 27.4248C267.582 24.4953 269.195 20.5221 269.195 16.3792C269.195 12.2363 267.582 8.26311 264.711 5.33365L243.06 27.4248Z" fill="#1F5AFF"/>
</g>
<defs>
<clipPath id="clip0_622_1140">
<rect width="328" height="32" fill="white"/>
</clipPath>
</defs>
</svg>

<svg width="328" height="32" viewBox="0 0 328 32" fill="none" xmlns="http://www.w3.org/2000/svg"><g clip-path="url(#clip0_622_1140)" fill="#1F5AFF"><path opacity=".75" d="M13.283 0H0v31.72h13.283V0zm170.415 0h-13.283v31.72h13.283V0z"/><path opacity=".75" d="M13.283 0H0v22.821h13.283a11.134 11.134 0 007.881-3.373 11.508 11.508 0 003.258-8.037c0-3.012-1.171-5.9-3.258-8.038A11.134 11.134 0 0013.284 0zm43.97 31.72H36.178V0l21.075 31.72z"/><path opacity=".75" d="M46.029 0h-9.851v22.821h9.85c1.482.012 2.95-.275 4.323-.843a11.212 11.212 0 003.67-2.468 11.425 11.425 0 002.456-3.712 11.576 11.576 0 000-8.774A11.424 11.424 0 0054.02 3.31 11.211 11.211 0 0050.35.843 11.064 11.064 0 0046.029 0zm94.751 0l-16.342 31.72h32.684L140.78 0z"/><path opacity=".75" d="M123.974 0l-16.342 31.72h32.684L123.974 0zM83.955 31.72c8.616 0 15.6-7.101 15.6-15.86C99.555 7.1 92.572 0 83.956 0s-15.6 7.1-15.6 15.86c0 8.759 6.984 15.86 15.6 15.86z"/><path opacity=".75" d="M72.925 27.076a15.472 15.472 0 0011.032 4.645c4.137 0 8.105-1.672 11.03-4.646a15.995 15.995 0 004.57-11.215c0-4.206-1.645-8.24-4.57-11.214l-22.062 22.43zM310.358 0l-16.335 32h32.67L310.358 0z"/><path opacity=".75" d="M293.371 0l-16.335 32h32.669L293.371 0zm-39.857 32c8.661 0 15.682-7.163 15.682-16 0-8.836-7.021-16-15.682-16-8.66 0-15.681 7.164-15.681 16 0 8.837 7.021 16 15.681 16zm-28.75-26.707a15.692 15.692 0 00-8.024-4.85 15.506 15.506 0 00-9.317.62 15.787 15.787 0 00-7.332 5.875A16.185 16.185 0 00197.322 16c0 3.236.966 6.396 2.769 9.062a15.787 15.787 0 007.332 5.875 15.506 15.506 0 009.317.621 15.692 15.692 0 008.024-4.851L218.658 16l6.106-10.707z"/><path opacity=".75" d="M224.765 5.294a16.478 16.478 0 00-7.159-4.52 16.853 16.853 0 00-8.522-.412L218.392 16l6.373-10.706zm-15.681 26.344a16.85 16.85 0 008.522-.412 16.477 16.477 0 007.159-4.52L218.393 16l-9.309 15.638zm33.976-4.213c2.871 2.93 6.765 4.575 10.825 4.575 4.061 0 7.955-1.646 10.826-4.575 2.871-2.93 4.484-6.903 4.484-11.046s-1.613-8.116-4.484-11.045l-21.651 22.09z"/></g><defs><clipPath id="clip0_622_1140"><path fill="#fff" d="M0 0h328v32H0z"/></clipPath></defs></svg>
